X:1
T:Budleigh, 10.10.10.10
T:Budleigh, 10.10.10.10
T:Thomas Molleson Mudie, before 1902
T:Public Domain Courtesy of the Cyber Hymnal™
C:Thomas Molleson Mudie, before 1902
Z:Public Domain
Z:Courtesy of the Cyber Hymnal™
%%score ( 1 2 ) ( 3 4 )
L:1/8
Q:1/4=115
M:4/4
K:F
V:1 treble 
V:2 treble 
V:3 bass 
V:4 bass 
V:1
 [FA]2 | [FA]3 [FA] [FB]2 [FA]2 | A4 G2 z2 | F4 [EG]3 [FA] | [FA]4 z2 [FA]2 | %5
 [FA]3 [FA] [FB]2 [FA]2 | A4 G2 z2 | [FG]4 [FA]2 [FG]2 | [Ec]4 z4 | [EG]4 [EG]2 [EG]2 | %10
 [Fc]6 [Fc]2 | [FB]2 [FB]2 [Ed]2 [Ec]2 | [EB]2 [FA]2 z2 [_EA]2 | [DG]3 [DG] [DG]2 [_EA]2 | %14
 [DB]4 D4 | E2 A4 [EG]2 | F4 z2 |] %17
V:2
 x2 | x8 | E6 x2 | F4 x4 | x8 | x8 | F6 x2 | x8 | x8 | x8 | x8 | x8 | x8 | x8 | x4 D4 | C6 x2 | %16
 F4 x2 |] %17
V:3
 [F,C]2 | [F,C]3 [F,C] [F,D]2 [F,C]2 | [C,B,]6 z2 | [D,A,]4 [C,B,]3 [F,A,] | [F,A,]4 z2 [F,C]2 | %5
 [F,C]3 [F,C] [F,D]2 [F,C]2 | [G,=B,]6 z2 | [G,=B,]4 [G,B,]2 [G,B,]2 | [C,C]4 z4 | %9
 [B,C]4 [B,C]2 [B,C]2 | [A,C]6 [A,C]2 | [G,D]2 [G,D]2 [C,C]2 [C,C]2 | [F,C]4 z2 [^F,C]2 | %13
 [G,B,]3 [B,D] [B,D]2 [^F,C]2 | [G,B,]4 [G,B,]4 | G,2 C4 [C,B,]2 | [F,A,]4 z2 |] %17
V:4
 x2 | x8 | x8 | x8 | x8 | x8 | x8 | x8 | x8 | x8 | x8 | x8 | x8 | x8 | x8 | C,6 x2 | x6 |] %17

